app/client/src/assets/icons/blueprintjs/20px/barcode.svg

<?xml version="1.0" encoding="utf-8"?>
<!-- Generator: Adobe Illustrator 17.1.0, SVG Export Plug-In . SVG Version: 6.00 Build 0)  -->
<!DOCTYPE svg PUBLIC "-//W3C//DTD SVG 1.1//EN" "http://www.w3.org/Graphics/SVG/1.1/DTD/svg11.dtd">
<svg version="1.1" id="Layer_1" xmlns="http://www.w3.org/2000/svg" xmlns:xlink="http://www.w3.org/1999/xlink" x="0px" y="0px"
	 viewBox="0 0 20 20" enable-background="new 0 0 20 20" xml:space="preserve">
<g id="barcode_2_">
	<g>
		<path fill-rule="evenodd" clip-rule="evenodd" d="M6,16.98h2v-14H6V16.98z M9,16.98h1v-14H9V16.98z M3,16.98h2v-14H3V16.98z
			 M0,16.98h2v-14H0V16.98z M16,16.98h2v-14h-2V16.98z M12,16.98h1v-14h-1V16.98z M19,2.98v14h1v-14H19z M14,16.98h1v-14h-1V16.98z"
			/>
	</g>
</g>
</svg>

<svg xmlns="http://www.w3.org/2000/svg" xml:space="preserve" viewBox="0 0 20 20"><path fill-rule="evenodd" d="M6 16.98h2v-14H6v14zm3 0h1v-14H9v14zm-6 0h2v-14H3v14zm-3 0h2v-14H0v14zm16 0h2v-14h-2v14zm-4 0h1v-14h-1v14zm7-14v14h1v-14h-1zm-5 14h1v-14h-1v14z" clip-rule="evenodd"/></svg>
